Sources/FrostedUI/Resources/Icons.xcassets/chat16.imageset/chat-16.svg

<svg width="16" height="16" viewBox="0 0 16 16" fill="none" xmlns="http://www.w3.org/2000/svg" data-fui-icon="true">
  <path
    fill-rule="evenodd"
    clip-rule="evenodd"
    d="M8.3608 1.00879C12.0592 1.19651 15.0005 4.25496 15.0005 8C15.0005 11.745 12.0592 14.8035 8.3608 14.9912L8.00045 15C7.44633 15 6.90618 14.935 6.38815 14.8125C5.57907 14.6211 4.912 14.5119 4.31197 14.6689C3.88918 14.7797 3.48066 14.9025 3.10787 15.0234C2.44427 15.2386 1.80818 14.9834 1.41256 14.5879C1.01695 14.1922 0.76266 13.5564 0.97799 12.8926C1.09892 12.5198 1.22095 12.1108 1.33151 11.6875C1.48806 11.0874 1.37894 10.421 1.18795 9.6123C1.06558 9.09416 1.00045 8.55408 1.00045 8C1.00045 4.13407 4.13455 1.00011 8.00045 1L8.3608 1.00879ZM8.00045 2.5C4.96298 2.50011 2.50045 4.9625 2.50045 8C2.50045 8.43696 2.55199 8.86143 2.64791 9.26758C2.83678 10.0673 3.04353 11.0684 2.78268 12.0674C2.66364 12.5232 2.5331 12.9598 2.40475 13.3555C2.39726 13.3786 2.39213 13.4463 2.47311 13.5273C2.55402 13.6081 2.62185 13.6032 2.64498 13.5957C3.04003 13.4676 3.47672 13.337 3.93209 13.2178C4.93159 12.9562 5.93287 13.1633 6.73287 13.3525C7.13901 13.4486 7.56364 13.5 8.00045 13.5C11.0378 13.4997 13.5005 11.0374 13.5005 8C13.5005 5.05756 11.1895 2.6544 8.28365 2.50684L8.00045 2.5ZM4.99947 7C5.55176 7 5.99947 7.44772 5.99947 8C5.99947 8.55228 5.55176 9 4.99947 9C4.44739 8.99977 3.99947 8.55214 3.99947 8C3.99947 7.44786 4.44739 7.00023 4.99947 7ZM7.99947 7C8.55176 7 8.99947 7.44772 8.99947 8C8.99947 8.55228 8.55176 9 7.99947 9C7.44739 8.99977 6.99947 8.55214 6.99947 8C6.99947 7.44786 7.44739 7.00023 7.99947 7ZM10.9995 7C11.5518 7 11.9995 7.44772 11.9995 8C11.9995 8.55228 11.5518 9 10.9995 9C10.4474 8.99977 9.99947 8.55214 9.99947 8C9.99947 7.44786 10.4474 7.00023 10.9995 7Z"
    fill="currentColor"
  />
</svg>

<svg xmlns="http://www.w3.org/2000/svg" width="16" height="16" fill="none" data-fui-icon="true" viewBox="0 0 16 16"><path fill="currentColor" fill-rule="evenodd" d="M8.36 1.009a7 7 0 0 1 0 13.982L8 15a7 7 0 0 1-1.612-.187c-.809-.192-1.476-.301-2.076-.144-.423.11-.831.233-1.204.354-.664.216-1.3-.04-1.695-.435-.396-.396-.65-1.032-.435-1.695.12-.373.243-.782.354-1.206.156-.6.047-1.266-.144-2.075A7 7 0 0 1 8 1zM8 2.5a5.5 5.5 0 0 0-5.352 6.768c.189.8.396 1.8.135 2.8-.12.455-.25.892-.378 1.287-.008.024-.013.091.068.172s.149.076.172.069c.395-.128.832-.259 1.287-.378 1-.262 2-.055 2.8.134Q7.345 13.5 8 13.5a5.5 5.5 0 0 0 .284-10.993zM5 7a1 1 0 1 1 0 2 1 1 0 0 1 0-2m3 0a1 1 0 1 1 0 2 1 1 0 0 1 0-2m3 0a1 1 0 1 1 0 2 1 1 0 0 1 0-2" clip-rule="evenodd"/></svg>
